www/assets/icons/view_in_ar.svg

<svg xmlns="http://www.w3.org/2000/svg" width="24" height="24" viewBox="0 0 24 24" fill='currentColor'><path d="m18.25 7.6-5.5-3.18a1.49 1.49 0 0 0-1.5 0L5.75 7.6c-.46.27-.75.76-.75 1.3v6.35c0 .54.29 1.03.75 1.3l5.5 3.18c.46.27 1.04.27 1.5 0l5.5-3.18c.46-.27.75-.76.75-1.3V8.9c0-.54-.29-1.03-.75-1.3M7 14.96v-4.62l4 2.32v4.61zm5-4.03L8 8.61l4-2.31 4 2.31zm1 6.34v-4.61l4-2.32v4.62zM7 2H3.5C2.67 2 2 2.67 2 3.5V7h2V4h3zm10 0h3.5c.83 0 1.5.67 1.5 1.5V7h-2V4h-3zM7 22H3.5c-.83 0-1.5-.67-1.5-1.5V17h2v3h3zm10 0h3.5c.83 0 1.5-.67 1.5-1.5V17h-2v3h-3z"/></svg>

<svg width="24" height="24" viewBox="0 0 24 24" xmlns="http://www.w3.org/2000/svg" fill='currentColor'><path d="M18.25 7.6L12.75 4.42C12.29 4.15 11.71 4.15 11.25 4.42L5.75 7.6C5.29 7.87 5 8.36 5 8.9V15.25C5 15.79 5.29 16.28 5.75 16.55L11.25 19.73C11.71 20 12.29 20 12.75 19.73L18.25 16.55C18.71 16.28 19 15.79 19 15.25V8.9C19 8.36 18.71 7.87 18.25 7.6ZM7 14.96V10.34L11 12.66V17.27L7 14.96ZM12 10.93L8 8.61L12 6.3L16 8.61L12 10.93ZM13 17.27V12.66L17 10.34V14.96L13 17.27ZM7 2H3.5C2.67 2 2 2.67 2 3.5V7H4V4H7V2ZM17 2H20.5C21.33 2 22 2.67 22 3.5V7H20V4H17V2ZM7 22H3.5C2.67 22 2 21.33 2 20.5V17H4V20H7V22ZM17 22H20.5C21.33 22 22 21.33 22 20.5V17H20V20H17V22Z"/></svg>
